public/images/well/outline/5.svg

<svg width="100%" height="100%" preserveAspectRatio="none" viewBox="0 0 180 180" fill="none" xmlns="http://www.w3.org/2000/svg">
<path fill-rule="evenodd" clip-rule="evenodd" d="M180 0H0V180H180V0ZM155.066 83.9993C153.953 85.2585 151.652 87.357 147.188 89.835H147.18C139.609 94.0401 134.879 101.958 134.734 110.595L133.999 110.998L134.734 111.402C134.879 120.038 139.609 127.956 147.18 132.161C151.709 134.68 154.017 136.802 155.107 138.053C149.997 144.091 127.292 155.778 90.0001 155.778C52.7086 155.778 29.9947 144.083 24.8853 138.053C25.975 136.802 28.2755 134.68 32.8118 132.161C40.3831 127.956 45.1131 120.038 45.2584 111.402L45.9929 110.998L45.2584 110.595C45.1131 101.958 40.3831 94.0401 32.8118 89.835C28.3481 87.357 26.0476 85.2585 24.9337 83.9993C25.4342 83.4424 26.1687 82.716 27.2423 81.8524C32.9409 77.2517 36.2503 70.3264 36.2503 63.0057C36.2503 55.6849 32.9409 48.7597 27.2423 44.159C26.1284 43.2631 25.3776 42.5124 24.8853 41.9474C29.9866 35.9181 52.7006 24.2227 90.0001 24.2227C127.3 24.2227 150.013 35.9181 155.115 41.9474C154.622 42.5124 153.872 43.2631 152.758 44.159C147.059 48.7597 143.75 55.6849 143.75 63.0057C143.75 70.3264 147.059 77.2517 152.758 81.8524C153.831 82.716 154.574 83.4424 155.066 83.9993Z" fill="white"/>
<path d="M180 83.9989C180 76.3472 175.617 69.1798 167.957 62.9972C175.617 56.8226 180 49.6471 180 41.9954C180 18.7983 139.706 0 90 0C40.2942 0 0 18.8063 0 41.9954C0 49.6471 4.3829 56.8145 12.043 62.9972C4.3829 69.1718 0 76.3472 0 83.9989C0 94.2819 7.91836 103.701 21.0592 110.998C7.91836 118.294 0 127.714 0 137.996C0 161.194 40.2942 179.992 90 179.992C139.706 179.992 180 161.186 180 137.996C180 127.714 172.082 118.294 158.941 110.998C172.082 103.701 180 94.2819 180 83.9989ZM90 24.2222C127.3 24.2222 150.013 35.9177 155.115 41.947C154.622 42.512 153.872 43.2626 152.758 44.1586C147.059 48.7592 143.75 55.6845 143.75 63.0052C143.75 70.326 147.059 77.2512 152.758 81.8519C153.831 82.7156 154.566 83.442 155.066 83.9989C153.952 85.2581 151.652 87.3566 147.188 89.8345C139.617 94.0397 134.887 101.958 134.742 110.594C134.742 110.731 134.725 110.869 134.725 110.998C134.725 111.127 134.734 111.272 134.742 111.401C134.887 120.038 139.617 127.956 147.188 132.161C151.725 134.679 154.025 136.802 155.115 138.053C150.005 144.082 127.291 155.778 90.0081 155.778C52.7247 155.778 30.0107 144.09 24.8932 138.053C25.9829 136.802 28.2914 134.679 32.8197 132.161C40.391 127.956 45.121 120.038 45.2663 111.401C45.2663 111.264 45.2825 111.127 45.2825 110.998C45.2825 110.869 45.2744 110.723 45.2663 110.594C45.121 101.958 40.391 94.0397 32.8197 89.8345C28.356 87.3566 26.0556 85.2581 24.9417 83.9989C25.4341 83.442 26.1767 82.7156 27.2502 81.8519C32.9489 77.2512 36.2582 70.326 36.2582 63.0052C36.2582 55.6845 32.9489 48.7592 27.2502 44.1586C26.1363 43.2626 25.3856 42.512 24.8932 41.947C29.9946 35.9177 52.7085 24.2222 90.0081 24.2222H90Z" fill="current"/>
<mask id="mask0_3125_6220" style="mask-type:luminance" maskUnits="userSpaceOnUse" x="0" y="0" width="180" height="180">
<path d="M90 155.786C127.291 155.786 149.997 144.098 155.107 138.061C154.017 136.81 151.708 134.687 147.18 132.169C139.496 127.899 134.725 119.795 134.725 110.997C134.725 102.2 139.496 94.104 147.18 89.8262C151.644 87.3483 153.944 85.2497 155.058 83.9906C154.566 83.4337 153.823 82.7072 152.75 81.8436C147.051 77.2429 143.742 70.3177 143.742 62.9969C143.742 55.6762 147.051 48.7509 152.75 44.1502C153.864 43.2543 154.614 42.5037 155.107 41.9387C150.005 35.9093 127.291 24.2139 89.9919 24.2139C52.6924 24.2139 29.9784 35.9093 24.8771 41.9387C25.3695 42.5037 26.1202 43.2543 27.2341 44.1502C32.9327 48.7509 36.2422 55.6762 36.2422 62.9969C36.2422 70.3177 32.9327 77.2429 27.2341 81.8436C26.1605 82.7072 25.426 83.4337 24.9256 83.9906C26.0395 85.2497 28.3399 87.3483 32.8036 89.8262C40.4879 94.096 45.2583 102.2 45.2583 110.997C45.2583 119.795 40.4879 127.891 32.8036 132.169C28.2673 134.687 25.9668 136.81 24.8771 138.061C29.9865 144.09 52.7004 155.786 89.9919 155.786M90 180C40.2942 180 0 161.193 0 138.004C0 127.721 7.91836 118.302 21.0592 111.006C7.91836 103.709 0 94.2897 0 84.0067C0 76.355 4.3829 69.1877 12.043 63.005C4.3829 56.8304 0 49.6549 0 42.0032C0 18.8061 40.2942 0.0078125 90 0.0078125C139.706 0.0078125 180 18.8141 180 42.0032C180 49.6549 175.617 56.8223 167.957 63.005C175.617 69.1796 180 76.355 180 84.0067C180 94.2897 172.082 103.709 158.941 111.006C172.082 118.302 180 127.721 180 138.004C180 161.201 139.706 180 90 180Z" fill="current"/>
</mask>
<g mask="url(#mask0_3125_6220)">
<path opacity='0.5' d="M90.0003 86.9771V-50.1396" stroke="white" stroke-miterlimit="10"/>
<path opacity='0.5' d="M90.0005 86.9778L78.0543 -49.6143" stroke="white" stroke-miterlimit="10"/>
<path opacity='0.5' d="M90.0001 86.9774L66.1965 -48.0488" stroke="white" stroke-miterlimit="10"/>
<path opacity='0.5' d="M90.0004 86.9776L54.517 -45.4658" stroke="white" stroke-miterlimit="10"/>
<path opacity='0.5' d="M89.9998 86.9763L43.103 -41.8672" stroke="white" stroke-miterlimit="10"/>
<path opacity='0.5' d="M90.0003 86.977L32.0532 -37.29" stroke="white" stroke-miterlimit="10"/>
<path opacity='0.5' d="M89.9998 86.9767L21.4464 -31.7695" stroke="white" stroke-miterlimit="10"/>
<path opacity='0.5' d="M89.9998 86.9774L11.3568 -25.3359" stroke="white" stroke-miterlimit="10"/>
<path opacity='0.5' d="M90 86.9773L1.86456 -18.0557" stroke="white" stroke-miterlimit="10"/>
<path opacity='0.5' d="M90.0002 86.9769L-6.95761 -9.97656" stroke="white" stroke-miterlimit="10"/>
<path opacity='0.5' d="M90.0004 86.9772L-15.0372 -1.1543" stroke="white" stroke-miterlimit="10"/>
<path opacity='0.5' d="M90 86.9777L-22.3184 8.33008" stroke="white" stroke-miterlimit="10"/>
<path opacity='0.5' d="M90 86.9773L-28.7434 18.4189" stroke="white" stroke-miterlimit="10"/>
<path opacity='0.5' d="M90.0004 86.9767L-34.2723 29.0322" stroke="white" stroke-miterlimit="10"/>
<path opacity='0.5' d="M90.0004 86.9778L-38.8489 40.083" stroke="white" stroke-miterlimit="10"/>
<path opacity='0.5' d="M90.0003 86.9772L-42.441 51.4873" stroke="white" stroke-miterlimit="10"/>
<path opacity='0.5' d="M90.0003 86.9766L-45.032 63.166" stroke="white" stroke-miterlimit="10"/>
<path opacity='0.5' d="M90.0005 86.9777L-46.5896 75.0234" stroke="white" stroke-miterlimit="10"/>
<path opacity='0.5' d="M90.0002 86.9766H-47.1146" stroke="white" stroke-miterlimit="10"/>
<path opacity='0.5' d="M90.0005 86.9766L-46.5896 98.9228" stroke="white" stroke-miterlimit="10"/>
<path opacity='0.5' d="M90.0003 86.9766L-45.032 110.787" stroke="white" stroke-miterlimit="10"/>
<path opacity='0.5' d="M90.0003 86.9766L-42.441 122.466" stroke="white" stroke-miterlimit="10"/>
<path opacity='0.5' d="M90.0004 86.9766L-38.8489 133.871" stroke="white" stroke-miterlimit="10"/>
<path opacity='0.5' d="M90.0004 86.9766L-34.2723 144.921" stroke="white" stroke-miterlimit="10"/>
<path opacity='0.5' d="M90 86.9766L-28.7434 155.535" stroke="white" stroke-miterlimit="10"/>
<path opacity='0.5' d="M90 86.9766L-22.3184 165.624" stroke="white" stroke-miterlimit="10"/>
<path opacity='0.5' d="M90.0004 86.9766L-15.0372 175.108" stroke="white" stroke-miterlimit="10"/>
<path opacity='0.5' d="M90.0002 86.9766L-6.95761 183.93" stroke="white" stroke-miterlimit="10"/>
<path opacity='0.5' d="M90 86.9766L1.86456 192.01" stroke="white" stroke-miterlimit="10"/>
<path opacity='0.5' d="M89.9998 86.9766L11.3568 199.29" stroke="white" stroke-miterlimit="10"/>
<path opacity='0.5' d="M89.9998 86.9766L21.4464 205.715" stroke="white" stroke-miterlimit="10"/>
<path opacity='0.5' d="M90.0003 86.9766L32.0532 211.244" stroke="white" stroke-miterlimit="10"/>
<path opacity='0.5' d="M89.9998 86.9766L43.103 215.82" stroke="white" stroke-miterlimit="10"/>
<path opacity='0.5' d="M90.0004 86.9766L54.517 219.42" stroke="white" stroke-miterlimit="10"/>
<path opacity='0.5' d="M90.0001 86.9766L66.1965 222.003" stroke="white" stroke-miterlimit="10"/>
<path opacity='0.5' d="M90.0005 86.9766L78.0543 223.569" stroke="white" stroke-miterlimit="10"/>
<path opacity='0.5' d="M90.0003 86.9766V224.085" stroke="white" stroke-miterlimit="10"/>
<path opacity='0.5' d="M90.0003 86.9766L101.955 223.569" stroke="white" stroke-miterlimit="10"/>
<path opacity='0.5' d="M90.0003 86.9766L113.812 222.003" stroke="white" stroke-miterlimit="10"/>
<path opacity='0.5' d="M90.0003 86.9766L125.492 219.42" stroke="white" stroke-miterlimit="10"/>
<path opacity='0.5' d="M90.0003 86.9766L136.897 215.82" stroke="white" stroke-miterlimit="10"/>
<path opacity='0.5' d="M90.0003 86.9766L147.955 211.244" stroke="white" stroke-miterlimit="10"/>
<path opacity='0.5' d="M90.0003 86.9766L158.562 205.715" stroke="white" stroke-miterlimit="10"/>
<path opacity='0.5' d="M90.0003 86.9766L168.651 199.29" stroke="white" stroke-miterlimit="10"/>
<path opacity='0.5' d="M90.0003 86.9766L178.144 192.01" stroke="white" stroke-miterlimit="10"/>
<path opacity='0.5' d="M90.0003 86.9766L186.958 183.93" stroke="white" stroke-miterlimit="10"/>
<path opacity='0.5' d="M90.0003 86.9766L195.046 175.108" stroke="white" stroke-miterlimit="10"/>
<path opacity='0.5' d="M90.0003 86.9766L202.327 165.624" stroke="white" stroke-miterlimit="10"/>
<path opacity='0.5' d="M90.0003 86.9766L208.752 155.535" stroke="white" stroke-miterlimit="10"/>
<path opacity='0.5' d="M90.0003 86.9766L214.273 144.921" stroke="white" stroke-miterlimit="10"/>
<path opacity='0.5' d="M90.0003 86.9766L218.85 133.871" stroke="white" stroke-miterlimit="10"/>
<path opacity='0.5' d="M90.0003 86.9766L222.45 122.466" stroke="white" stroke-miterlimit="10"/>
<path opacity='0.5' d="M90.0003 86.9766L225.041 110.787" stroke="white" stroke-miterlimit="10"/>
<path opacity='0.5' d="M90.0003 86.9766L226.599 98.9228" stroke="white" stroke-miterlimit="10"/>
<path opacity='0.5' d="M90.0003 86.9766H227.123" stroke="white" stroke-miterlimit="10"/>
<path opacity='0.5' d="M90.0003 86.9777L226.599 75.0234" stroke="white" stroke-miterlimit="10"/>
<path opacity='0.5' d="M90.0003 86.9766L225.041 63.166" stroke="white" stroke-miterlimit="10"/>
<path opacity='0.5' d="M90.0003 86.9772L222.45 51.4873" stroke="white" stroke-miterlimit="10"/>
<path opacity='0.5' d="M90.0003 86.9778L218.85 40.083" stroke="white" stroke-miterlimit="10"/>
<path opacity='0.5' d="M90.0003 86.9767L214.273 29.0322" stroke="white" stroke-miterlimit="10"/>
<path opacity='0.5' d="M90.0003 86.9773L208.752 18.4189" stroke="white" stroke-miterlimit="10"/>
<path opacity='0.5' d="M90.0003 86.9777L202.327 8.33008" stroke="white" stroke-miterlimit="10"/>
<path opacity='0.5' d="M90.0003 86.9772L195.046 -1.1543" stroke="white" stroke-miterlimit="10"/>
<path opacity='0.5' d="M90.0003 86.9769L186.958 -9.97656" stroke="white" stroke-miterlimit="10"/>
<path opacity='0.5' d="M90.0003 86.9773L178.144 -18.0557" stroke="white" stroke-miterlimit="10"/>
<path opacity='0.5' d="M90.0003 86.9774L168.651 -25.3359" stroke="white" stroke-miterlimit="10"/>
<path opacity='0.5' d="M90.0003 86.9767L158.562 -31.7695" stroke="white" stroke-miterlimit="10"/>
<path opacity='0.5' d="M90.0003 86.977L147.955 -37.29" stroke="white" stroke-miterlimit="10"/>
<path opacity='0.5' d="M90.0003 86.9763L136.897 -41.8672" stroke="white" stroke-miterlimit="10"/>
<path opacity='0.5' d="M90.0003 86.9776L125.492 -45.4658" stroke="white" stroke-miterlimit="10"/>
<path opacity='0.5' d="M90.0003 86.9774L113.812 -48.0488" stroke="white" stroke-miterlimit="10"/>
<path opacity='0.5' d="M90.0003 86.9778L101.955 -49.6143" stroke="white" stroke-miterlimit="10"/>
</g>
</svg>

<svg preserveAspectRatio="none" viewBox="0 0 180 180" fill="none" xmlns="http://www.w3.org/2000/svg"><path fill-rule="evenodd" clip-rule="evenodd" d="M180 0H0v180h180V0Zm-24.934 84c-1.113 1.258-3.414 3.357-7.878 5.835h-.008a24.204 24.204 0 0 0-12.446 20.76l-.735.403.735.404a24.204 24.204 0 0 0 12.446 20.759c4.529 2.519 6.837 4.641 7.927 5.892-5.11 6.038-27.815 17.725-65.107 17.725-37.291 0-60.005-11.695-65.115-17.725 1.09-1.251 3.39-3.373 7.927-5.892a24.204 24.204 0 0 0 12.446-20.759l.735-.404-.735-.403a24.205 24.205 0 0 0-12.446-20.76c-4.464-2.478-6.764-4.576-7.878-5.836.5-.557 1.235-1.283 2.308-2.147a24.218 24.218 0 0 0 0-37.693c-1.114-.896-1.864-1.647-2.357-2.212C29.987 35.918 52.701 24.223 90 24.223c37.3 0 60.013 11.695 65.115 17.724-.493.565-1.243 1.316-2.357 2.212a24.217 24.217 0 0 0 0 37.693c1.073.864 1.816 1.59 2.308 2.147Z" fill="#fff"/><path d="M180 83.999c0-7.652-4.383-14.82-12.043-21.002C175.617 56.823 180 49.647 180 41.995 180 18.798 139.706 0 90 0S0 18.806 0 41.995c0 7.652 4.383 14.82 12.043 21.002C4.383 69.172 0 76.347 0 84c0 10.283 7.918 19.702 21.06 26.999C7.917 118.294 0 127.714 0 137.996c0 23.198 40.294 41.996 90 41.996s90-18.806 90-41.996c0-10.282-7.918-19.702-21.059-26.998 13.141-7.297 21.059-16.716 21.059-27ZM90 24.222c37.3 0 60.013 11.696 65.115 17.725-.493.565-1.243 1.316-2.357 2.212a24.216 24.216 0 0 0 0 37.693c1.073.864 1.808 1.59 2.308 2.147-1.114 1.26-3.414 3.358-7.878 5.836a24.205 24.205 0 0 0-12.446 20.759c0 .137-.017.275-.017.404s.009.274.017.403a24.204 24.204 0 0 0 12.446 20.76c4.537 2.518 6.837 4.641 7.927 5.892-5.11 6.029-27.824 17.725-65.107 17.725s-59.997-11.688-65.115-17.725c1.09-1.251 3.398-3.374 7.927-5.892a24.205 24.205 0 0 0 12.446-20.76c0-.137.017-.274.017-.403s-.009-.275-.017-.404a24.205 24.205 0 0 0-12.446-20.76c-4.464-2.477-6.764-4.576-7.878-5.835.492-.557 1.235-1.283 2.308-2.147a24.218 24.218 0 0 0 0-37.693c-1.114-.896-1.864-1.647-2.357-2.212 5.102-6.03 27.816-17.725 65.115-17.725H90Z" fill="current"/><mask id="a" style="mask-type:luminance" maskUnits="userSpaceOnUse" x="0" y="0" width="180" height="180"><path d="M90 155.786c37.291 0 59.997-11.688 65.107-17.725-1.09-1.251-3.399-3.374-7.927-5.892a24.223 24.223 0 0 1-12.455-21.172 24.232 24.232 0 0 1 12.455-21.17c4.464-2.479 6.764-4.577 7.878-5.836-.492-.557-1.235-1.284-2.308-2.147a24.217 24.217 0 0 1 0-37.694c1.114-.896 1.864-1.646 2.357-2.211-5.102-6.03-27.816-17.725-65.115-17.725-37.3 0-60.014 11.695-65.115 17.725.492.565 1.243 1.315 2.357 2.211a24.218 24.218 0 0 1 0 37.694c-1.074.863-1.808 1.59-2.308 2.147 1.114 1.259 3.414 3.357 7.878 5.835a24.221 24.221 0 0 1 0 42.343c-4.537 2.518-6.837 4.641-7.927 5.892 5.11 6.029 27.823 17.725 65.115 17.725M90 180c-49.706 0-90-18.807-90-41.996 0-10.283 7.918-19.702 21.06-26.998C7.917 103.709 0 94.29 0 84.006c0-7.651 4.383-14.818 12.043-21.001C4.383 56.83 0 49.655 0 42.003 0 18.806 40.294.008 90 .008s90 18.806 90 41.995c0 7.652-4.383 14.82-12.043 21.002C175.617 69.18 180 76.355 180 84.007c0 10.283-7.918 19.702-21.059 26.999C172.082 118.302 180 127.721 180 138.004 180 161.201 139.706 180 90 180Z" fill="current"/></mask><g mask="url(#a)" stroke="#fff" stroke-miterlimit="10"><path opacity=".5" d="M90 86.977V-50.14M90 86.978 78.055-49.614M90 86.977 66.197-48.049M90 86.978 54.517-45.466M90 86.976 43.103-41.867M90 86.977 32.053-37.29M90 86.977 21.446-31.77M90 86.977 11.357-25.336M90 86.977 1.865-18.056M90 86.977-6.958-9.977M90 86.977-15.037-1.154M90 86.978-22.318 8.33M90 86.977-28.743 18.42M90 86.977-34.272 29.032M90 86.978-38.849 40.083M90 86.977-42.44 51.487M90 86.977-45.032 63.166M90 86.978-46.59 75.023M90 86.977H-47.115M90 86.977-46.59 98.923M90 86.977l-135.032 23.81M90 86.977-42.44 122.466M90 86.977-38.849 133.87M90 86.977-34.272 144.92M90 86.977l-118.743 68.558M90 86.977l-112.318 78.647M90 86.977l-105.037 88.131M90 86.977-6.958 183.93M90 86.977 1.865 192.01M90 86.977 11.357 199.29M90 86.977 21.446 205.715M90 86.977 32.053 211.244M90 86.977 43.103 215.82M90 86.977 54.517 219.42M90 86.977 66.197 222.003M90 86.977 78.055 223.569M90 86.977v137.108M90 86.977l11.955 136.592M90 86.977l23.812 135.026M90 86.977l35.492 132.443M90 86.977l46.897 128.843M90 86.977l57.955 124.267M90 86.977l68.562 118.738M90 86.977l78.651 112.313M90 86.977l88.144 105.033M90 86.977l96.958 96.953M90 86.977l105.046 88.131M90 86.977l112.327 78.647M90 86.977l118.752 68.558M90 86.977l124.273 57.944M90 86.977l128.85 46.894M90 86.977l132.45 35.489M90 86.977l135.041 23.81M90 86.977 226.6 98.923M90 86.977h137.123M90 86.978 226.6 75.023M90 86.977l135.041-23.811M90 86.977l132.45-35.49M90 86.978l128.85-46.895M90 86.977l124.273-57.945M90 86.977 208.752 18.42M90 86.978 202.327 8.33M90 86.977 195.046-1.154M90 86.977l96.958-96.954M90 86.977l88.144-105.033M90 86.977l78.651-112.313M90 86.977 158.562-31.77M90 86.977 147.955-37.29M90 86.976l46.897-128.843M90 86.978l35.492-132.444M90 86.977l23.812-135.026M90 86.978l11.955-136.592"/></g></svg>
